src/actions/16/layer-lower.svg

<svg xmlns="http://www.w3.org/2000/svg" viewBox="0 0 16 16">
  <defs id="defs3051">
    <style type="text/css" id="current-color-scheme">
      .ColorScheme-Text {
        color:#363636;
      }
      .ColorScheme-Highlight {
        color:#3daee9;
      }
      </style>
  </defs>
  <path 
        style="fill:currentColor;fill-opacity:1;stroke:none"
        d="M 3.9980469 3 L 3.9980469 8.0292969 L 2.6542969 6.5917969 L 1.9980469 7.2792969 L 4.3105469 9.7792969 L 4.4980469 9.9980469 L 4.6875 9.7792969 L 7 7.2792969 L 6.34375 6.5917969 L 5 8.0292969 L 4.9980469 8.0292969 L 4.9980469 3 L 3.9980469 3 z M 9 3 L 6 6 L 11 6 L 14 3 L 9 3 z M 5 11 L 2 14 L 11 14 L 14 11 L 5 11 z "
        class="ColorScheme-Text"
        />
  <path
        style="fill:currentColor;fill-opacity:1;stroke:none"
        d="m 9,7 -3,3 5,0 3,-3 z"
        class="ColorScheme-Highlight"
      />
</svg>

<svg xmlns="http://www.w3.org/2000/svg" viewBox="0 0 16 16">
    <path d="M3.998 3v5.03L2.654 6.591l-.656.687 2.313 2.5.187.219.19-.219L7 7.28l-.656-.687L5 8.029h-.002V3h-1zM9 3 6 6h5l3-3H9zm-4 8-3 3h9l3-3H5z" style="fill:currentColor;fill-opacity:1;stroke:none;color:#050505;opacity:.7"/>
    <path d="m9 7-3 3h5l3-3z" style="fill:currentColor;fill-opacity:1;stroke:none;color:#a0b6cb"/>
</svg>
